X:1
T:Heathery Breeze
M:4/4
L:1/8
R:reel
F:Catskills+Tunes.txt
K:Gmaj
D:Willie Kelly
DGBG dGBG | DFAF BFAF | DGBG dGBG | AdcA BG G2 :|
~g2 gf gbag | fd ~d2 fgaf |1 ~g2 gf gbag | fdcA BGBd :|2 defg abag | fdcA BGAF ||
